svg/300/sharp/electrical_services-fill.svg

<svg xmlns="http://www.w3.org/2000/svg" width="48" height="48" viewBox="0 -960 960 960"><path d="M706.538-370.001v-45.383h123.461v45.383H706.538Zm0 160v-45.383h123.461v45.383H706.538Zm-209.23 40v-80h-90.769v-125.383h90.769v-80h176.537v285.383H497.308Zm-367.307-120v-292.691h291.153v-161.924H170.001v-45.383h296.537v252.691H175.384v201.924h198.463v45.383H130.001Z"/></svg>

<svg xmlns="http://www.w3.org/2000/svg" width="48" height="48" viewBox="0 -960 960 960"><path d="M706.54-370v-45.38H830V-370H706.54Zm0 160v-45.38H830V-210H706.54Zm-209.23 40v-80h-90.77v-125.38h90.77v-80h176.54V-170H497.31ZM130-290v-292.69h291.15v-161.93H170V-790h296.54v252.69H175.38v201.93h198.47V-290H130Z"/></svg>
